X: 12319
T: Fairy, The
R: jig
M: 6/8
K: Gmajor
|:GDD GAB|ADD ABc|Bdd dcB|BAA ABA|
GDD BcB|ADD cdc|Bdd dcB|1 AGF GBA:|2 AGF GAG||
K: Dmajor
|:FGA AFd|BGd AFd|FGA Adf|gfd ecA|
FGA AFd|BGe cAf|dBg eca|1 gec dAG:|2 gec dBA||

